dist/img/advantages/img-01.svg

<svg width="81" height="81" viewBox="0 0 81 81" fill="none" xmlns="http://www.w3.org/2000/svg">
<rect width="80" height="80" transform="translate(0.5 0.515625)" fill="white"/>
<path d="M74.016 27.6064C74.016 27.6064 71.2727 26.0519 69.7182 21.7999C68.1637 17.5479 61.4428 16.9078 57.4652 20.2454C53.4875 23.6287 34.7878 24.2231 27.1068 27.6064C19.4258 30.9897 5.38963 32.2241 5.84684 40.7738C6.30404 49.3236 13.345 50.6037 14.5337 47.8148C15.7682 45.0716 30.5359 50.2837 34.6507 53.347C38.7655 56.4102 51.3386 64.3656 61.7629 61.9424C72.1871 59.5192 66.3806 52.1125 67.5694 48.4549C68.8495 44.7515 78.3137 33.4129 74.016 27.6064Z" fill="#D95D98"/>
<path d="M54.8139 30.4459C46.6757 26.2854 32.7767 28.8457 22.6268 29.2572C14.9915 31.6346 5.52733 33.7378 5.8931 40.8244C6.30458 49.4199 13.3912 50.6543 14.58 47.8654C14.58 47.8654 11.9282 43.7048 19.8378 40.2758C27.7474 36.8468 30.2164 46.951 42.7895 50.0142C55.3626 53.0775 67.2042 36.7553 54.8139 30.4459Z" fill="#F05D96"/>
<path d="M49.4665 45.5736C52.4208 45.5736 54.8158 43.1786 54.8158 40.2243C54.8158 37.27 52.4208 34.875 49.4665 34.875C46.5122 34.875 44.1172 37.27 44.1172 40.2243C44.1172 43.1786 46.5122 45.5736 49.4665 45.5736Z" fill="#E6E7E8"/>
<path d="M49.4646 43.7886C51.4342 43.7886 53.0308 42.192 53.0308 40.2224C53.0308 38.2529 51.4342 36.6562 49.4646 36.6562C47.4951 36.6562 45.8984 38.2529 45.8984 40.2224C45.8984 42.192 47.4951 43.7886 49.4646 43.7886Z" fill="#414042"/>
<path d="M67.6123 51.5199C67.4294 50.3769 67.338 49.3253 67.6123 48.4566C68.8468 44.799 78.3566 33.4603 74.0589 27.6081C74.0589 27.6081 71.3157 26.0536 69.7612 21.8016C68.8011 19.1498 65.875 17.9154 62.8117 18.144C71.4528 19.6985 66.515 30.8086 64.229 34.8319C58.1025 45.5762 67.6123 51.5199 67.6123 51.5199Z" fill="#DB3D78"/>
</svg>

<svg width="81" height="81" fill="none" xmlns="http://www.w3.org/2000/svg"><path fill="#fff" d="M.5.516h80v80H.5z"/><path d="M74.016 27.606s-2.743-1.554-4.298-5.806c-1.554-4.252-8.275-4.892-12.253-1.555-3.978 3.384-22.677 3.978-30.358 7.361-7.681 3.384-21.717 4.618-21.26 13.168.457 8.55 7.498 9.83 8.687 7.04 1.234-2.742 16.002 2.47 20.117 5.533 4.114 3.063 16.688 11.019 27.112 8.595 10.424-2.423 4.618-9.83 5.806-13.487 1.28-3.703 10.745-15.042 6.447-20.849z" fill="#D95D98"/><path d="M54.814 30.446c-8.138-4.16-22.037-1.6-32.187-1.189-7.635 2.378-17.1 4.48-16.734 11.567.412 8.596 7.498 9.83 8.687 7.041 0 0-2.652-4.16 5.258-7.59 7.91-3.428 10.378 6.676 22.951 9.74 12.574 3.063 24.415-13.26 12.025-19.57z" fill="#F05D96"/><path d="M49.467 45.574a5.35 5.35 0 100-10.7 5.35 5.35 0 000 10.7z" fill="#E6E7E8"/><path d="M49.465 43.789a3.566 3.566 0 100-7.133 3.566 3.566 0 000 7.133z" fill="#414042"/><path d="M67.612 51.52c-.183-1.143-.274-2.195 0-3.063 1.235-3.658 10.745-14.997 6.447-20.849 0 0-2.743-1.554-4.298-5.806-.96-2.652-3.886-3.887-6.95-3.658 8.642 1.555 3.704 12.665 1.418 16.688-6.127 10.744 3.383 16.688 3.383 16.688z" fill="#DB3D78"/></svg>
